src/assets/icons/icons-origin/PlusSquare.svg

<svg width="24" height="24" viewBox="0 0 24 24" xmlns="http://www.w3.org/2000/svg">
  <path d="M18 3H6C5.20435 3 4.44129 3.31607 3.87868 3.87868C3.31607 4.44129 3 5.20435 3 6V18C3 18.7956 3.31607 19.5587 3.87868 20.1213C4.44129 20.6839 5.20435 21 6 21H18C18.7956 21 19.5587 20.6839 20.1213 20.1213C20.6839 19.5587 21 18.7956 21 18V6C21 5.20435 20.6839 4.44129 20.1213 3.87868C19.5587 3.31607 18.7956 3 18 3ZM15 13H13V15C13 15.2652 12.8946 15.5196 12.7071 15.7071C12.5196 15.8946 12.2652 16 12 16C11.7348 16 11.4804 15.8946 11.2929 15.7071C11.1054 15.5196 11 15.2652 11 15V13H9C8.73478 13 8.48043 12.8946 8.29289 12.7071C8.10536 12.5196 8 12.2652 8 12C8 11.7348 8.10536 11.4804 8.29289 11.2929C8.48043 11.1054 8.73478 11 9 11H11V9C11 8.73478 11.1054 8.48043 11.2929 8.29289C11.4804 8.10536 11.7348 8 12 8C12.2652 8 12.5196 8.10536 12.7071 8.29289C12.8946 8.48043 13 8.73478 13 9V11H15C15.2652 11 15.5196 11.1054 15.7071 11.2929C15.8946 11.4804 16 11.7348 16 12C16 12.2652 15.8946 12.5196 15.7071 12.7071C15.5196 12.8946 15.2652 13 15 13Z" fill="currentColor" />
</svg>

<svg width="24" height="24" viewBox="0 0 24 24" xmlns="http://www.w3.org/2000/svg">
  <path d="M18 3H6a3 3 0 0 0-3 3v12a3 3 0 0 0 3 3h12a3 3 0 0 0 3-3V6a3 3 0 0 0-3-3Zm-3 10h-2v2a1 1 0 0 1-2 0v-2H9a1 1 0 0 1 0-2h2V9a1 1 0 0 1 2 0v2h2a1 1 0 0 1 0 2Z" fill="currentColor"/>
</svg>
